public/library/family-text-dark.svg

<svg width="720" height="177" viewBox="0 0 720 177" fill="none" xmlns="http://www.w3.org/2000/svg">
<g clip-path="url(#clip0_2641_9139)">
<path d="M159.503 26.8053C159.501 19.7316 156.69 12.9482 151.688 7.94634C146.686 2.94447 139.903 0.133573 132.829 0.131584C119.891 0.000334427 109.204 9.24408 106.553 21.3903H105.893C104.663 15.3766 101.397 9.97068 96.6466 6.08351C91.896 2.19633 85.9507 0.0655129 79.8124 0.050099C73.6742 0.0346851 67.7182 2.13562 62.9482 5.99888C58.1781 9.86215 54.8855 15.2516 53.6252 21.2591H52.9653C51.9836 16.5187 49.734 12.1336 46.4564 8.57102C43.1788 5.00846 38.996 2.402 34.3537 1.02946C29.7114 -0.34308 24.7837 -0.430266 20.0958 0.777195C15.4079 1.98466 11.1354 4.44151 7.73383 7.8859C4.33224 11.3303 1.92899 15.6331 0.780241 20.3358C-0.368511 25.0384 -0.21972 29.9647 1.21076 34.5894C2.64124 39.2142 5.29979 43.3641 8.90305 46.5969C12.5063 49.8297 16.9193 52.0243 21.6715 52.9466V53.4753C15.5754 54.6642 10.0824 57.9356 6.13324 62.7293C2.18408 67.523 0.0245603 73.5407 0.0245603 79.7516C0.0245603 85.9625 2.18408 91.9802 6.13324 96.7739C10.0824 101.568 15.5754 104.839 21.6715 106.028V106.553C16.9144 107.457 12.4925 109.637 8.87871 112.86C5.26491 116.083 2.59517 120.227 1.15503 124.85C-0.285117 129.473 -0.44149 134.401 0.702633 139.106C1.84676 143.811 4.24834 148.117 7.65052 151.562C11.0527 155.008 15.3275 157.464 20.0177 158.667C24.7079 159.871 29.6371 159.777 34.278 158.396C38.919 157.014 43.0971 154.397 46.3656 150.825C49.6341 147.252 51.8699 142.858 52.834 138.113H53.494C56.0027 150.259 66.829 159.488 79.639 159.488C85.8008 159.516 91.7803 157.398 96.5506 153.498C101.321 149.597 104.584 144.158 105.78 138.113H106.44C108.949 150.259 119.775 159.488 132.585 159.488C139.224 159.472 145.62 156.985 150.525 152.512C155.431 148.039 158.496 141.899 159.122 135.29C159.748 128.68 157.892 122.074 153.913 116.759C149.935 111.444 144.121 107.8 137.603 106.538V106.013C143.699 104.824 149.192 101.553 153.141 96.7589C157.09 91.9652 159.25 85.9475 159.25 79.7366C159.25 73.5257 157.09 67.508 153.141 62.7143C149.192 57.9206 143.699 54.6492 137.603 53.4603V52.9316C143.743 51.849 149.306 48.6358 153.311 43.8572C157.317 39.0786 159.509 33.0407 159.503 26.8053ZM122.663 116.457C122.664 117.272 122.505 118.08 122.193 118.833C121.882 119.587 121.425 120.272 120.848 120.848C120.272 121.425 119.587 121.882 118.833 122.193C118.08 122.505 117.272 122.664 116.456 122.663H43.1777C42.3623 122.664 41.5546 122.505 40.801 122.193C40.0473 121.882 39.3626 121.425 38.786 120.848C38.2094 120.272 37.7523 119.587 37.4409 118.833C37.1295 118.08 36.97 117.272 36.9715 116.457V43.1778C36.97 42.3624 37.1295 41.5547 37.4409 40.8011C37.7523 40.0474 38.2094 39.3626 38.786 38.786C39.3626 38.2094 40.0473 37.7524 40.801 37.441C41.5546 37.1296 42.3623 36.9701 43.1777 36.9716H116.456C117.272 36.9701 118.08 37.1296 118.833 37.441C119.587 37.7524 120.272 38.2094 120.848 38.786C121.425 39.3626 121.882 40.0474 122.193 40.8011C122.505 41.5547 122.664 42.3624 122.663 43.1778V116.457Z" fill="white" style="fill:white;fill:white;fill-opacity:1;"/>
<path d="M242.421 48.1952H301.308V27.9902H218.785V143.261H242.421V92.824H292.068V72.8852H242.421V48.1952Z" fill="white" style="fill:white;fill:white;fill-opacity:1;"/>
<path d="M368.649 67.4691C363.369 59.5491 352.674 54.4004 341.713 54.4004C316.363 54.4004 299.199 71.9579 299.199 99.5541C299.199 127.15 316.363 144.712 341.713 144.843C352.674 144.843 363.5 139.432 368.649 131.774V143.399H390.699V55.8516H368.649V67.4691ZM345.024 125.969C331.149 125.969 321.519 115.143 321.399 99.5616C321.399 83.7179 331.172 73.1541 345.024 73.1541C358.877 73.1541 368.649 83.7179 368.649 99.5616C368.649 115.004 358.877 125.962 345.002 125.962L345.024 125.969Z" fill="white" style="fill:white;fill:white;fill-opacity:1;"/>
<path d="M510.06 54.4004C498.435 54.4004 488.685 59.5491 482.07 70.1091C477.195 60.4716 467.28 54.4004 455.003 54.4004C442.853 54.4004 434.798 60.3404 429.78 67.9979V55.8516H407.73V143.249H429.78V92.2941C429.78 80.8079 436.647 73.6754 447.21 73.6754C457.774 73.6754 464.625 81.8616 464.625 92.2941V143.392H486.675V92.2941C486.675 82.6529 491.55 73.6754 504.105 73.6754C515.73 73.6754 521.667 82.1279 521.667 92.2941V143.249H543.75V86.4854C543.75 66.6779 528.413 54.4004 510.06 54.4004Z" fill="white" style="fill:white;fill:white;fill-opacity:1;"/>
<path d="M570.531 44.3659C578.771 44.3659 585.452 37.6855 585.452 29.4447C585.452 21.2039 578.771 14.5234 570.531 14.5234C562.29 14.5234 555.609 21.2039 555.609 29.4447C555.609 37.6855 562.29 44.3659 570.531 44.3659Z" fill="white" style="fill:white;fill:white;fill-opacity:1;"/>
<path d="M581.624 55.8516H559.574V143.392H581.624V55.8516Z" fill="white" style="fill:white;fill:white;fill-opacity:1;"/>
<path d="M619.785 115.534V27.9941H597.75V117.912C597.75 140.753 612.802 146.562 630.375 144.315V125.303C624.274 125.832 619.785 123.72 619.785 115.534Z" fill="white" style="fill:white;fill:white;fill-opacity:1;"/>
<path d="M696.499 55.8516L674.449 112.499L652.924 55.8741H629.16L663.375 141.145L660.75 147.618C657.713 155.275 651.638 157.387 645.96 157.387C642 157.387 636.983 156.198 630.514 153.029V172.439C635.799 174.784 641.474 176.128 647.25 176.403C664.418 176.403 674.846 169.653 680.79 154.878L720 55.8516H696.499Z" fill="white" style="fill:white;fill:white;fill-opacity:1;"/>
</g>
<defs>
<clipPath id="clip0_2641_9139">
<rect width="720" height="176.404" fill="white" style="fill:white;fill-opacity:1;"/>
</clipPath>
</defs>
</svg>

<svg xmlns="http://www.w3.org/2000/svg" width="720" height="177" fill="none" viewBox="0 0 720 177"><g fill="#fff" clip-path="url(#a)"><path d="M159.503 26.805A26.68 26.68 0 0 0 132.829.132C119.891 0 109.204 9.244 106.553 21.39h-.66a26.69 26.69 0 0 0-52.268-.13h-.66a26.753 26.753 0 1 0-31.293 31.687v.528a26.772 26.772 0 0 0 0 52.553v.525a26.712 26.712 0 1 0 31.162 31.56h.66c2.509 12.146 13.335 21.375 26.145 21.375a26.523 26.523 0 0 0 26.141-21.375h.66c2.509 12.146 13.335 21.375 26.145 21.375a26.721 26.721 0 0 0 21.328-42.729 26.72 26.72 0 0 0-16.31-10.221v-.525a26.77 26.77 0 0 0 21.647-26.276 26.77 26.77 0 0 0-21.647-26.277v-.528a26.5 26.5 0 0 0 21.9-26.127m-36.84 89.652a6.2 6.2 0 0 1-1.815 4.391 6.19 6.19 0 0 1-4.392 1.815H43.178a6.19 6.19 0 0 1-5.737-3.83 6.2 6.2 0 0 1-.47-2.376v-73.28a6.194 6.194 0 0 1 6.207-6.205h73.278a6.19 6.19 0 0 1 5.737 3.83c.312.753.471 1.56.47 2.376zM242.421 48.195h58.887V27.99h-82.523v115.271h23.636V92.824h49.647V72.885h-49.647zM368.649 67.47c-5.28-7.92-15.975-13.07-26.936-13.07-25.35 0-42.514 17.558-42.514 45.154s17.164 45.158 42.514 45.289c10.961 0 21.787-5.411 26.936-13.069v11.625h22.05V55.852h-22.05zm-23.625 58.499c-13.875 0-23.505-10.826-23.625-26.407 0-15.844 9.773-26.408 23.625-26.408s23.625 10.564 23.625 26.408c0 15.442-9.772 26.4-23.647 26.4zM510.06 54.4c-11.625 0-21.375 5.15-27.99 15.71-4.875-9.638-14.79-15.71-27.067-15.71-12.15 0-20.205 5.94-25.223 13.598V55.852h-22.05v87.397h22.05V92.294c0-11.486 6.867-18.619 17.43-18.619 10.564 0 17.415 8.187 17.415 18.62v51.097h22.05V92.294c0-9.641 4.875-18.619 17.43-18.619 11.625 0 17.562 8.453 17.562 18.62v50.954h22.083V86.485c0-19.807-15.337-32.085-33.69-32.085M570.531 44.366c8.24 0 14.921-6.68 14.921-14.921s-6.681-14.922-14.921-14.922c-8.241 0-14.922 6.68-14.922 14.922 0 8.24 6.681 14.92 14.922 14.92M581.624 55.852h-22.05v87.54h22.05zM619.785 115.534v-87.54H597.75v89.918c0 22.841 15.052 28.65 32.625 26.403v-19.012c-6.101.529-10.59-1.583-10.59-9.769" style="fill:#fff;fill-opacity:1"/><path d="m696.499 55.852-22.05 56.647-21.525-56.625H629.16l34.215 85.271-2.625 6.473c-3.037 7.657-9.112 9.769-14.79 9.769-3.96 0-8.977-1.189-15.446-4.358v19.41a46.8 46.8 0 0 0 16.736 3.964c17.168 0 27.596-6.75 33.54-21.525L720 55.852z" style="fill:#fff;fill-opacity:1"/></g><defs><clipPath id="a"><path fill="#fff" d="M0 0h720v176.404H0z" style="fill:#fff;fill-opacity:1"/></clipPath></defs></svg>
